lib/brands/icons/ms-word.svg

<svg xmlns="http://www.w3.org/2000/svg" fill="none" aria-hidden="true" viewBox="0 0 48 48"><g id="ms-word-Icon"><g id="Group"><rect id="rectangle" width="24" height="28" x="16" y="10" fill="url(#paint0_linear_94_19047)" rx="2"/><path id="rectangle_2" fill="url(#paint1_linear_94_19047)" d="M16 31H40V36C40 37.1046 39.1046 38 38 38H18C16.8954 38 16 37.1046 16 36V31Z"/><rect id="rectangle_3" width="24" height="7" x="16" y="24" fill="url(#paint2_linear_94_19047)"/><rect id="rectangle_4" width="24" height="7" x="16" y="17" fill="url(#paint3_linear_94_19047)"/><path id="rectangle_5" fill="black" fill-opacity="0.3" d="M16 20C16 18.3431 17.3431 17 19 17H25C26.6569 17 28 18.3431 28 20V32C28 33.6569 26.6569 35 25 35H16V20Z"/><rect id="rectangle_6" width="18" height="18" x="8" y="15" fill="url(#paint4_linear_94_19047)" rx="2"/><path id="W" fill="white" d="M23 19.0142H21.0523L19.5229 25.539L17.8497 19H16.2026L14.5163 25.539L13 19.0142H11L13.6013 29H15.3268L17 22.6879L18.6732 29H20.3987L23 19.0142Z"/></g></g><defs><linearGradient id="paint0_linear_94_19047" x1="16" x2="40" y1="14.6667" y2="14.6667" gradientUnits="userSpaceOnUse"><stop stop-color="#2B78B1"/><stop offset="1" stop-color="#338ACD"/></linearGradient><linearGradient id="paint1_linear_94_19047" x1="16" x2="40" y1="35.375" y2="35.375" gradientUnits="userSpaceOnUse"><stop stop-color="#1B366F"/><stop offset="1" stop-color="#2657B0"/></linearGradient><linearGradient id="paint2_linear_94_19047" x1="26.5" x2="40" y1="28" y2="28" gradientUnits="userSpaceOnUse"><stop stop-color="#20478B"/><stop offset="1" stop-color="#2D6FD1"/></linearGradient><linearGradient id="paint3_linear_94_19047" x1="26.5" x2="40" y1="21" y2="21" gradientUnits="userSpaceOnUse"><stop stop-color="#215295"/><stop offset="1" stop-color="#2E84D3"/></linearGradient><linearGradient id="paint4_linear_94_19047" x1="8" x2="27" y1="25" y2="25" gradientUnits="userSpaceOnUse"><stop stop-color="#223E74"/><stop offset="1" stop-color="#215091"/></linearGradient></defs></svg>

<svg xmlns="http://www.w3.org/2000/svg" fill="none" aria-hidden="true" viewBox="0 0 48 48"><rect width="24" height="28" x="16" y="10" fill="url(#a)" rx="2"/><path fill="url(#b)" d="M16 31h24v5a2 2 0 0 1-2 2H18a2 2 0 0 1-2-2v-5Z"/><path fill="url(#c)" d="M16 24h24v7H16z"/><path fill="url(#d)" d="M16 17h24v7H16z"/><path fill="#000" fill-opacity=".3" d="M16 20a3 3 0 0 1 3-3h6a3 3 0 0 1 3 3v12a3 3 0 0 1-3 3h-9V20Z"/><rect width="18" height="18" x="8" y="15" fill="url(#e)" rx="2"/><path fill="#fff" d="M23 19.014h-1.948l-1.53 6.525L17.85 19h-1.647l-1.687 6.539L13 19.014h-2L13.601 29h1.726L17 22.688 18.673 29H20.4l2.6-9.986Z"/><defs><linearGradient id="a" x1="16" x2="40" y1="14.667" y2="14.667" gradientUnits="userSpaceOnUse"><stop stop-color="#2B78B1"/><stop offset="1" stop-color="#338ACD"/></linearGradient><linearGradient id="b" x1="16" x2="40" y1="35.375" y2="35.375" gradientUnits="userSpaceOnUse"><stop stop-color="#1B366F"/><stop offset="1" stop-color="#2657B0"/></linearGradient><linearGradient id="c" x1="26.5" x2="40" y1="28" y2="28" gradientUnits="userSpaceOnUse"><stop stop-color="#20478B"/><stop offset="1" stop-color="#2D6FD1"/></linearGradient><linearGradient id="d" x1="26.5" x2="40" y1="21" y2="21" gradientUnits="userSpaceOnUse"><stop stop-color="#215295"/><stop offset="1" stop-color="#2E84D3"/></linearGradient><linearGradient id="e" x1="8" x2="27" y1="25" y2="25" gradientUnits="userSpaceOnUse"><stop stop-color="#223E74"/><stop offset="1" stop-color="#215091"/></linearGradient></defs></svg>
